X: 13407
T: Flitch Of Bacon, The
R: jig
M: 6/8
K: Gmajor
DGG BAB|cAG FGA|DGG BAB|cAF G2 G|
DGG B2 B|cAG FGA|f.e.d f2 d|c.A.F ~G3|
DGG B2 B|cAG FGA|DGG BAB|cAF g2 g|
DGG BAB|c/B/AG FGa|fed f2 d|cAF ~G2 B||
def g2 g|fed gdB|def g2 g|fed cAF|
def g2 g|fed g2 d|fed f2 d|cAF ~G2 g|
.d.e.f g2 g|fed gdB|def g2 g|{f/g/}fed cAF|
def g2 g|fed g2 d|fed f/g/fd|cAF {A/}G3||"end"cAF {a/}g3||

